packages/core/src/svgs/tokens/branded/GUSD.svg

<svg width="24" height="24" viewBox="0 0 24 24" fill="none" xmlns="http://www.w3.org/2000/svg">
<path d="M15.0706 2C11.5531 2 8.62622 4.76748 8.24997 8.24997C4.76562 8.62622 2 11.5525 2 15.07C2.00083 16.9075 2.73113 18.6696 4.03043 19.969C5.32974 21.2685 7.09177 21.999 8.92935 22C12.4468 22 15.3862 19.2324 15.7499 15.7499C19.2337 15.3736 22 12.4475 22 8.92998C21.9991 7.0924 21.2688 5.3303 19.9696 4.03087C18.6702 2.73145 16.9082 2.00099 15.0706 2ZM20.7499 9.49994C20.4049 11.765 18.0187 14.1543 15.7499 14.5V9.49994H20.7499ZM3.24999 14.5C3.59124 12.2231 5.97374 9.84746 8.24997 9.49994V14.5H3.24999ZM14.4999 15.7499C14.1187 18.3374 11.5406 20.7524 8.92935 20.7499C6.30061 20.7524 3.6325 18.3437 3.24999 15.7499H14.4999ZM14.4999 9.49994V14.5H9.49992V9.49994H14.4999ZM20.7499 8.24997H9.49992C9.88302 5.65186 12.445 3.24748 15.0706 3.24999C17.6962 3.24748 20.3668 5.65249 20.7499 8.24997Z" fill="#24DDF9"/>
</svg>

<svg xmlns="http://www.w3.org/2000/svg" width="24" height="24" fill="none" viewBox="0 0 24 24">
    <path fill="#24DDF9" d="M15.07 2c-3.517 0-6.444 2.767-6.82 6.25C4.766 8.626 2 11.553 2 15.07A6.933 6.933 0 0 0 8.93 22c3.517 0 6.456-2.768 6.82-6.25 3.484-.376 6.25-3.302 6.25-6.82A6.934 6.934 0 0 0 15.07 2m5.68 7.5c-.345 2.265-2.731 4.654-5 5v-5zm-17.5 5c.341-2.277 2.724-4.653 5-5v5zm11.25 1.25c-.381 2.587-2.96 5.002-5.57 5-2.63.002-5.297-2.406-5.68-5zm0-6.25v5h-5v-5zm6.25-1.25H9.5c.383-2.598 2.945-5.003 5.57-5 2.626-.003 5.297 2.402 5.68 5"/>
</svg>
